X: 2
T: Crowley's
R: reel
M: 4/4
L: 1/8
K: Dmaj
dB|"D"AFAd "G"B2dB|"D"AD D/D/D AD D/D/D|AFAd "G"BABc|"A"defg "D"fddB|
ADAd "G"B2dB|"D"AD D/D/D AD D/D/D|AFAd "G"BABc|"A"defg "D"fdde||
fa a/a/f "G"g/g/g fg|"A"eA A/A/A eA A/A/A|"D"df f/e/f "G"g2fg|"D"afge "G"fdde|
"D"fa a/a/f "G"g2fg|"A"eA A/A/A eA A/A/A|"D"df f/e/f "G"g2fg|"D"afge "G"fdd2||


Tune 759	Setting 759

